;FLAVOR:UltiGCode
;TIME:560
;MATERIAL:1064
;MATERIAL2:0
;NOZZLE_DIAMETER:0.4
;MINX:121.962
;MINY:170.554
;MINZ:0.27
;MAXX:142.466
;MAXY:191.056
;MAXZ:8.07
;TARGET_MACHINE.NAME:Ultimaker 2+
;Generated with Cura_SteamEngine 5.9.0
M82 ;absolute extrusion mode
G0 F3000 Y50 ;avoid prime blob
G92 E0
G92 E0
G10
;LAYER_COUNT:40
;LAYER:0
M107
;MESH:motorGear.stl
G0 F7200 X126.076 Y173.607 Z0.27
;TYPE:WALL-OUTER
G11
G1 F888.9 X126.226 Y173.879 E0.0369
G1 X126.189 Y174.286 E0.08545
G1 X125.644 Y174.79 E0.17364
G1 X125.424 Y174.838 E0.20039
G1 X125.024 Y174.671 E0.25189
G1 X125.182 Y174.91 E0.28592
G1 X125.256 Y175.211 E0.32275
G1 X125.225 Y175.333 E0.3377
G1 X124.792 Y175.883 E0.42086
G1 X124.521 Y175.98 E0.45505
G1 X124.165 Y175.859 E0.49972
G1 X124.38 Y176.067 E0.53526
G1 X124.473 Y176.46 E0.58324
G1 X124.104 Y177.116 E0.67266
G1 X123.79 Y177.246 E0.71303
G1 X123.48 Y177.193 E0.75039
G1 X123.653 Y177.317 E0.77568
G1 X123.871 Y177.63 E0.82099
G1 X123.882 Y177.739 E0.83401
G1 X123.644 Y178.404 E0.91792
G1 X123.408 Y178.593 E0.95384
G1 X123.002 Y178.594 E1.00207
G1 X123.308 Y178.726 E1.04166
G1 X123.519 Y179.012 E1.08388
G1 X123.379 Y179.774 E1.17592
G1 X123.237 Y179.951 E1.20288
G1 X122.77 Y180.063 E1.25994
G1 X123.057 Y180.167 E1.2962
G1 X123.345 Y180.456 E1.34467
G1 X123.323 Y181.168 E1.4293
G1 X123.154 Y181.427 E1.46604
G1 X122.8 Y181.54 E1.51018
G1 X123.103 Y181.581 E1.54651
G1 X123.346 Y181.793 E1.58482
G1 X123.488 Y182.414 E1.6605
G1 X123.363 Y182.833 E1.71244
G1 X123.013 Y183.017 E1.75942
G1 X123.337 Y183 E1.79796
G1 X123.662 Y183.186 E1.84245
G1 X123.872 Y183.913 E1.93235
G1 X123.789 Y184.192 E1.96693
G1 X123.466 Y184.418 E2.01376
G1 X123.775 Y184.36 E2.05111
G1 X124.143 Y184.502 E2.09797
G1 X124.46 Y185.181 E2.18699
G1 X124.409 Y185.533 E2.22925
G1 X124.213 Y185.714 E2.26094
G1 X124.408 Y185.65 E2.28532
G1 X124.756 Y185.69 E2.32694
G1 X125.211 Y186.271 E2.41461
G1 X125.242 Y186.648 E2.45955
G1 X125.037 Y186.933 E2.50126
G1 X125.289 Y186.801 E2.53505
G1 X125.643 Y186.811 E2.57712
G1 X126.168 Y187.363 E2.66762
G1 X126.235 Y187.653 E2.70298
G1 X126.086 Y187.976 E2.74524
G1 X126.3 Y187.809 E2.77749
G1 X126.702 Y187.764 E2.82555
G1 X127.281 Y188.206 E2.91208
G1 X127.392 Y188.498 E2.94919
G1 X127.269 Y188.878 E2.99664
G1 X127.489 Y188.633 E3.03576
G1 X127.828 Y188.516 E3.07837
G1 X128.514 Y188.902 E3.17188
G1 X128.65 Y189.136 E3.20403
G1 X128.585 Y189.567 E3.25582
G1 X128.764 Y189.282 E3.2958
G1 X129.155 Y189.132 E3.34555
G1 X129.812 Y189.4 E3.42984
G1 X130.007 Y189.654 E3.46789
G1 X130.011 Y189.973 E3.50579
G1 X130.124 Y189.741 E3.53644
G1 X130.437 Y189.536 E3.58089
G1 X131.161 Y189.636 E3.66772
G1 X131.427 Y189.888 E3.71125
G1 X131.466 Y190.236 E3.75285
G1 X131.558 Y189.946 E3.789
G1 X131.787 Y189.703 E3.82866
G1 X132.575 Y189.695 E3.92228
G1 X132.818 Y189.844 E3.95615
G1 X132.953 Y190.234 E4.00518
G1 X132.992 Y189.913 E4.04359
G1 X133.277 Y189.612 E4.09284
G1 X133.963 Y189.548 E4.17469
G1 X134.259 Y189.693 E4.21384
G1 X134.417 Y190.022 E4.2572
G1 X134.411 Y189.715 E4.29368
G1 X134.598 Y189.385 E4.33874
G1 X135.303 Y189.149 E4.42706
G1 X135.602 Y189.231 E4.4639
G1 X135.838 Y189.555 E4.51152
G1 X135.768 Y189.229 E4.55113
G1 X135.87 Y188.89 E4.59319
G1 X136.585 Y188.557 E4.68689
G1 X136.826 Y188.575 E4.7156
G1 X137.167 Y188.894 E4.77107
G1 X137.08 Y188.589 E4.80875
G1 X137.111 Y188.268 E4.84706
G1 X137.607 Y187.853 E4.92389
G1 X138.042 Y187.766 E4.97659
G1 X138.363 Y187.996 E5.02351
G1 X138.219 Y187.712 E5.06134
G1 X138.237 Y187.313 E5.10879
G1 X138.767 Y186.849 E5.19247
G1 X139.095 Y186.788 E5.2321
G1 X139.403 Y186.956 E5.27378
G1 X139.227 Y186.723 E5.30847
G1 X139.191 Y186.342 E5.35394
G1 X139.604 Y185.752 E5.4395
G1 X139.823 Y185.641 E5.46866
G1 X140.284 Y185.749 E5.52491
G1 X140.081 Y185.531 E5.5603
G1 X139.957 Y185.139 E5.60915
G1 X140.308 Y184.509 E5.69482
G1 X140.57 Y184.361 E5.73057
G1 X140.935 Y184.429 E5.77468
G1 X140.694 Y184.258 E5.80979
G1 X140.539 Y183.884 E5.85788
G1 X140.771 Y183.22 E5.94144
G1 X141.019 Y183.014 E5.97974
G1 X141.392 Y183.011 E6.02406
G1 X141.12 Y182.882 E6.05982
G1 X140.946 Y182.638 E6.09542
G1 X141.013 Y181.973 E6.17482
G1 X141.261 Y181.609 E6.22715
G1 X141.642 Y181.543 E6.27309
G1 X141.337 Y181.463 E6.31055
G1 X141.081 Y181.191 E6.35492
G1 X141.113 Y180.418 E6.44683
G1 X141.234 Y180.222 E6.4742
G1 X141.632 Y180.057 E6.52538
G1 X141.353 Y180.001 E6.55919
G1 X141.09 Y179.831 E6.59639
G1 X140.94 Y179.198 E6.67367
G1 X141.059 Y178.782 E6.72508
G1 X141.387 Y178.606 E6.7693
G1 X141.091 Y178.613 E6.80447
G1 X140.761 Y178.398 E6.85126
G1 X140.556 Y177.695 E6.93826
G1 X140.639 Y177.391 E6.9757
G1 X140.868 Y177.214 E7.01008
G1 X140.673 Y177.25 E7.03364
G1 X140.28 Y177.094 E7.08387
G1 X139.969 Y176.434 E7.17055
G1 X139.98 Y176.211 E7.19707
G1 X140.302 Y175.85 E7.25454
G1 X139.999 Y175.936 E7.29196
G1 X139.612 Y175.912 E7.33802
G1 X139.186 Y175.271 E7.42946
G1 X139.168 Y175.037 E7.45734
G1 X139.433 Y174.644 E7.51365
G1 X139.135 Y174.784 E7.55276
G1 X138.82 Y174.799 E7.59023
G1 X138.324 Y174.371 E7.66806
G1 X138.18 Y173.953 E7.72058
G1 X138.337 Y173.636 E7.7626
G1 X138.11 Y173.811 E7.79666
G1 X137.699 Y173.83 E7.84553
G1 X137.142 Y173.389 E7.92994
G1 X137.042 Y173.169 E7.95864
G1 X137.163 Y172.744 E8.01114
G1 X136.995 Y172.915 E8.03962
G1 X136.641 Y173.076 E8.08582
G1 X135.916 Y172.706 E8.18252
G1 X135.791 Y172.506 E8.21054
G1 X135.825 Y172.07 E8.26249
G1 X135.652 Y172.291 E8.29583
G1 X135.385 Y172.463 E8.33356
G1 X135.268 Y172.472 E8.34751
G1 X134.611 Y172.235 E8.43048
G1 X134.429 Y172.017 E8.46422
G1 X134.422 Y171.589 E8.51507
G1 X134.289 Y171.899 E8.55515
G1 X133.928 Y172.1 E8.60423
G1 X133.235 Y171.94 E8.68873
G1 X133.023 Y171.749 E8.72263
G1 X132.953 Y171.38 E8.76724
G1 X132.884 Y171.664 E8.80196
G1 X132.562 Y171.936 E8.85204
G1 X131.84 Y171.912 E8.93786
G1 X131.537 Y171.698 E8.98193
G1 X131.466 Y171.401 E9.01821
G1 X131.445 Y171.639 E9.04659
G1 X131.245 Y171.949 E9.09042
G1 X130.459 Y172.08 E9.18508
G1 X130.183 Y171.951 E9.22128
G1 X130.026 Y171.631 E9.26362
G1 X130.023 Y171.913 E9.29713
G1 X129.821 Y172.256 E9.34442
G1 X129.122 Y172.46 E9.43092
G1 X128.826 Y172.38 E9.46735
G1 X128.6 Y172.073 E9.51264
G1 X128.656 Y172.38 E9.54971
G1 X128.553 Y172.717 E9.59157
G1 X127.854 Y173.05 E9.68356
G1 X127.556 Y173.016 E9.71919
G1 X127.283 Y172.747 E9.76472
G1 X127.386 Y173.038 E9.80139
G1 X127.334 Y173.39 E9.84366
G1 X126.685 Y173.829 E9.93675
G1 X126.536 Y173.836 E9.95447
G0 F800 X126.387 Y173.842
G0 X126.076 Y173.607
G0 F7200 X126.172 Y173.781
G0 X126.518 Y174.133
G0 X130.811 Y178.406
G0 X131.081 Y179.061
G1 F888.9 X131.808 Y178.759 E10.04799
G1 X132.624 Y178.764 E10.14493
G1 X133.376 Y179.072 E10.24147
G1 X133.942 Y179.647 E10.33733
G1 X134.259 Y180.393 E10.43362
G1 X134.254 Y181.225 E10.53246
G1 X133.978 Y181.889 E10.61789
G1 X133.668 Y182.292 E10.67829
G1 X133.009 Y182.731 E10.77236
G1 X132.207 Y182.888 E10.86945
G1 X131.408 Y182.728 E10.96625
G1 X130.737 Y182.273 E11.06257
G1 X130.286 Y181.597 E11.15911
G1 X130.128 Y180.81 E11.25447
G1 X130.289 Y180.001 E11.35246
G1 X130.684 Y179.422 E11.43573
G0 F800 X130.715 Y179.377
G0 X131.081 Y179.061
G0 F7200 X131.265 Y178.985
G0 X130.995 Y178.33
G0 X130.359 Y178.84
G0 X129.663 Y179.669
G0 X129.918 Y179.84
;TYPE:WALL-INNER
G1 F888.9 X130.406 Y179.116 E11.52531
G1 X130.877 Y178.71 E11.58911
G1 X131.749 Y178.359 E11.68556
G1 X132.7 Y178.36 E11.78313
G1 X133.601 Y178.737 E11.88334
G1 X134.285 Y179.42 E11.98251
G1 X134.66 Y180.313 E12.08188
G1 X134.659 Y181.295 E12.18264
G1 X134.333 Y182.074 E12.26928
G1 X133.963 Y182.572 E12.33293
G1 X133.181 Y183.099 E12.42969
G1 X132.208 Y183.293 E12.53148
G1 X131.259 Y183.107 E12.6307
G1 X130.467 Y182.581 E12.72825
G1 X129.911 Y181.749 E12.83092
G1 X129.721 Y180.801 E12.93012
G1 X129.793 Y180.451 E12.96678
G0 F800 X129.918 Y179.84
G0 F7200 X129.663 Y179.669
G0 X129.313 Y180.795
G1 F888.9 X129.533 Y179.698 E13.08157
G1 X130.109 Y178.845 E13.18717
G1 X130.668 Y178.365 E13.26277
G1 X131.657 Y177.959 E13.37246
G1 X132.78 Y177.961 E13.48768
G1 X133.834 Y178.397 E13.60471
G1 X134.622 Y179.193 E13.71963
G1 X135.061 Y180.244 E13.83649
G1 X135.057 Y181.382 E13.95325
G1 X134.667 Y182.305 E14.05605
G1 X134.229 Y182.882 E14.13038
G1 X133.326 Y183.483 E14.24167
G1 X132.209 Y183.704 E14.3585
G1 X131.098 Y183.479 E14.4748
G1 X130.174 Y182.866 E14.58857
G1 X129.541 Y181.927 E14.70475
G1 X129.436 Y181.406 E14.75928
G0 F800 X129.313 Y180.795
G0 F7200 X129.166 Y182.084
G1 F888.9 X128.94 Y180.963 E14.87661
G1 X128.944 Y180.614 E14.91242
G1 X129.157 Y179.538 E15.02496
G1 X129.789 Y178.592 E15.14169
G1 X130.465 Y178.015 E15.23288
G1 X131.418 Y177.626 E15.33849
G1 X131.844 Y177.559 E15.38273
G1 X132.857 Y177.561 E15.48666
G1 X133.911 Y177.993 E15.60354
G1 X134.17 Y178.168 E15.63561
G1 X134.964 Y178.97 E15.7514
G1 X135.394 Y180.008 E15.86667
G1 X135.459 Y180.356 E15.90299
G1 X135.46 Y181.45 E16.01524
G1 X135.015 Y182.508 E16.133
G1 X134.515 Y183.166 E16.21779
G1 X133.61 Y183.776 E16.32977
G1 X133.325 Y183.891 E16.3613
G1 X132.366 Y184.082 E16.46162
G1 X132.058 Y184.076 E16.49323
G1 X130.943 Y183.861 E16.60974
G1 X129.877 Y183.148 E16.74132
G1 X129.512 Y182.603 E16.80862
G0 F800 X129.166 Y182.084
G0 F7200 X129.489 Y183.288
G1 F888.9 X128.882 Y182.38 E16.92068
G1 X128.731 Y181.989 E16.96368
G1 X128.543 Y181.008 E17.06616
G1 X128.548 Y180.559 E17.11224
G1 X128.742 Y179.568 E17.21584
G1 X128.903 Y179.207 E17.2564
G1 X129.486 Y178.324 E17.36496
G1 X130.263 Y177.665 E17.46949
G1 X131.296 Y177.244 E17.58394
G1 X131.789 Y177.16 E17.63525
G1 X132.684 Y177.162 E17.72708
G1 X133.183 Y177.263 E17.77931
G1 X134.09 Y177.634 E17.87986
G1 X134.426 Y177.858 E17.92129
G1 X135.301 Y178.741 E18.04883
G1 X135.775 Y179.886 E18.17598
G1 X135.858 Y180.333 E18.22262
G1 X135.855 Y181.322 E18.32409
G1 X135.76 Y181.768 E18.37088
G1 X135.362 Y182.711 E18.4759
G1 X134.797 Y183.456 E18.57183
G1 X133.804 Y184.126 E18.69473
G1 X133.443 Y184.275 E18.7348
G1 X132.408 Y184.481 E18.84308
G1 X132.015 Y184.474 E18.8834
G1 X131.026 Y184.284 E18.98673
G1 X130.614 Y184.114 E19.03246
G1 X129.966 Y183.687 E19.11208
G0 F800 X129.837 Y183.602
G0 X129.489 Y183.288
G0 F7200 X129.5 Y183.858
G1 F888.9 X129.169 Y183.514 E19.16106
G1 X128.53 Y182.576 E19.27751
G1 X128.346 Y182.097 E19.33016
G1 X128.149 Y181.109 E19.43352
G1 X128.152 Y180.505 E19.49549
G1 X128.318 Y179.652 E19.58465
G1 X128.499 Y179.083 E19.64591
G1 X129.178 Y178.066 E19.77138
G1 X129.994 Y177.35 E19.88276
G1 X131.125 Y176.875 E20.00862
G1 X131.61 Y176.758 E20.0598
G1 X132.707 Y176.763 E20.17236
G1 X133.243 Y176.856 E20.22817
G1 X134.276 Y177.278 E20.34266
G1 X134.69 Y177.554 E20.39371
G1 X135.636 Y178.511 E20.53178
G1 X136.142 Y179.712 E20.66549
G1 X136.259 Y180.374 E20.73446
G1 X136.253 Y181.355 E20.83511
G1 X136.138 Y181.901 E20.89236
G1 X135.732 Y182.884 E21.00148
G1 X135.259 Y183.51 E21.08198
G1 X134.881 Y183.882 E21.1364
G1 X133.995 Y184.481 E21.24613
G1 X133.55 Y184.663 E21.29545
G1 X132.377 Y184.894 E21.41811
G1 X131.859 Y184.856 E21.4714
G1 X131.016 Y184.689 E21.55958
G1 X130.481 Y184.513 E21.61736
G1 X130.019 Y184.204 E21.67439
G0 F800 X129.5 Y183.858
G0 F7200 X130.156 Y184.778
G1 F888.9 X129.37 Y184.252 E21.77142
G1 X128.806 Y183.705 E21.85204
G1 X128.176 Y182.763 E21.96831
G1 X127.96 Y182.206 E22.0296
G1 X127.751 Y181.157 E22.13934
G1 X127.755 Y180.451 E22.21178
G1 X127.926 Y179.574 E22.30346
G1 X128.139 Y178.899 E22.37608
G1 X128.875 Y177.802 E22.51161
G1 X129.771 Y177.011 E22.63424
G1 X130.997 Y176.495 E22.77072
G1 X131.781 Y176.36 E22.85234
G1 X132.87 Y176.363 E22.96407
G1 X133.451 Y176.509 E23.02553
G1 X134.429 Y176.917 E23.13426
G1 X134.937 Y177.237 E23.19586
G1 X135.842 Y178.15 E23.32775
G1 X136.124 Y178.64 E23.38576
G1 X136.512 Y179.56 E23.4882
G1 X136.657 Y180.287 E23.56426
G1 X136.661 Y181.428 E23.68133
G1 X136.515 Y182.033 E23.74518
G1 X136.086 Y183.079 E23.86118
G1 X135.362 Y184.038 E23.98446
G1 X134.184 Y184.835 E24.13039
G1 X133.661 Y185.048 E24.18833
G1 X132.428 Y185.293 E24.31731
G1 X131.873 Y185.266 E24.37432
G1 X130.815 Y185.057 E24.48497
G1 X130.73 Y185.021 E24.49444
G0 F800 X130.156 Y184.778
G0 F7200 X130.713 Y185.445
G1 F888.9 X130.096 Y185.217 E24.56193
G1 X129.136 Y184.576 E24.68036
G1 X128.583 Y184.091 E24.75583
G1 X127.819 Y182.947 E24.89697
G1 X127.572 Y182.305 E24.96755
G1 X127.354 Y181.214 E25.0817
G1 X127.359 Y180.397 E25.16552
G1 X127.587 Y179.223 E25.28822
G1 X127.889 Y178.553 E25.36363
G1 X128.4 Y177.791 E25.45776
G1 X128.799 Y177.336 E25.51985
G1 X129.399 Y176.806 E25.60199
G1 X129.875 Y176.534 E25.65824
G1 X130.866 Y176.117 E25.76855
G1 X131.517 Y175.959 E25.83728
G1 X132.753 Y175.964 E25.96409
G1 X133.475 Y176.088 E26.03926
G1 X134.646 Y176.565 E26.16899
G1 X135.209 Y176.942 E26.2385
G1 X135.919 Y177.66 E26.34211
G1 X136.38 Y178.219 E26.41645
G1 X136.898 Y179.444 E26.55291
G1 X137.056 Y180.265 E26.63869
G1 X137.061 Y181.464 E26.76171
G1 X136.893 Y182.166 E26.83577
G1 X136.437 Y183.275 E26.95879
G1 X135.885 Y184.009 E27.05302
G1 X135.426 Y184.487 E27.12101
G1 X134.372 Y185.189 E27.25094
G1 X133.779 Y185.432 E27.3167
G1 X132.798 Y185.627 E27.41931
G1 X132.249 Y185.684 E27.47595
G1 X131.731 Y185.646 E27.52923
G1 X131.325 Y185.566 E27.57169
G0 F800 X130.713 Y185.445
G0 F7200 X131.838 Y186.073
G1 F837.9 X130.756 Y185.884 E27.69058
G1 F842.3 X130.006 Y185.615 E27.77642
G1 F844.6 X129.401 Y185.249 E27.85241
G1 F837.9 X128.704 Y184.768 E27.94408
G1 F846.8 X128.225 Y184.268 E28.01832
G1 F833.5 X127.743 Y183.583 E28.10941
G1 F827.1 X127.328 Y182.849 E28.20176
G1 F837.9 X127.094 Y182.01 E28.29605
G1 X126.953 Y181.278 E28.37674
G1 F842.3 X126.927 Y180.501 E28.46049
G1 F849 X127.133 Y179.415 E28.57872
G1 F846.8 X127.392 Y178.613 E28.66908
G1 F837.9 X127.777 Y177.979 E28.74937
G1 F833.5 X128.206 Y177.365 E28.83083
G1 F842.3 X128.855 Y176.74 E28.9279
G1 F846.8 X129.475 Y176.27 E29.01131
G1 F837.9 X130.274 Y175.915 E29.10595
G1 X130.959 Y175.666 E29.18484
G1 F842.3 X131.74 Y175.55 E29.2699
G1 X132.776 Y175.555 E29.38151
G1 F846.8 X133.575 Y175.697 E29.46852
G1 F835.7 X134.332 Y175.988 E29.55652
G1 F831.4 X134.907 Y176.248 E29.62531
G1 F846.8 X135.506 Y176.667 E29.70368
G1 F837.9 X136.184 Y177.337 E29.80686
G1 F824.9 X136.739 Y178.042 E29.90536
G1 F829.2 X137.104 Y178.87 E30.00424
G1 F837.9 X137.347 Y179.528 E30.08016
G1 F844.6 X137.474 Y180.241 E30.158
G1 F846.8 X137.467 Y181.266 E30.2679
G1 F849 X137.359 Y182.079 E30.35562
G1 F835.7 X137.039 Y182.897 E30.45092
G1 X136.733 Y183.547 E30.52887
G1 F837.9 X136.207 Y184.264 E30.62513
G1 F849 X135.617 Y184.835 E30.71295
G1 F837.9 X135.019 Y185.259 E30.7923
G1 F827.1 X134.207 Y185.718 E30.89446
G1 F824.9 X133.409 Y185.931 E30.98513
G1 F822.8 X132.57 Y186.076 E31.07882
G1 F842.3 X132.462 Y186.076 E31.09046
G0 F800 X131.838 Y186.073
G0 F7200 X134.043 Y188.845
G0 X134.213 Y189.206
G1 F888.9 X134.42 Y189.021 E31.11894
G1 X135.229 Y188.75 E31.20648
G1 X135.495 Y188.77 E31.23384
G1 X135.67 Y188.542 E31.26333
G1 X136.467 Y188.169 E31.35362
G1 X136.735 Y188.161 E31.38113
G1 X136.86 Y187.959 E31.4055
G1 X137.414 Y187.491 E31.47991
G1 X137.822 Y187.376 E31.5234
G1 X137.998 Y186.992 E31.56674
G1 X138.534 Y186.524 E31.63974
G1 X138.773 Y186.422 E31.66641
G1 X138.834 Y186.147 E31.69531
G1 X139.326 Y185.456 E31.78234
G1 X139.566 Y185.313 E31.811
G1 X139.566 Y185.023 E31.84076
G1 X139.979 Y184.268 E31.92905
G1 X140.168 Y184.115 E31.954
G1 X140.147 Y183.805 E31.98588
G1 X140.416 Y183.02 E32.07102
G1 X140.6 Y182.82 E32.0989
G1 X140.552 Y182.598 E32.1222
G1 X140.621 Y181.853 E32.19897
G1 X140.816 Y181.504 E32.23999
G1 X140.687 Y181.202 E32.27368
G1 X140.713 Y180.351 E32.36103
G1 X140.817 Y180.115 E32.38749
G1 X140.702 Y179.915 E32.41116
G1 X140.546 Y179.249 E32.48134
G1 X140.61 Y178.812 E32.52666
G1 X140.38 Y178.522 E32.56463
G1 X140.154 Y177.753 E32.64687
G1 X140.179 Y177.52 E32.67091
G1 X139.966 Y177.364 E32.698
G1 X139.581 Y176.555 E32.78993
G1 X139.569 Y176.301 E32.81601
G1 X139.275 Y176.119 E32.85149
G1 X138.819 Y175.445 E32.93498
G1 X138.771 Y175.189 E32.96171
G1 X138.557 Y175.098 E32.98557
G1 X138.028 Y174.635 E33.05769
